teams/dark/111.svg

<svg xmlns="http://www.w3.org/2000/svg" viewBox="0 0 300 300"><title>Boston Red Sox cap on dark logo</title><path fill="#bd3039" d="M208.12 174.08c-1.21-4.8-6.03-17.45-16.37-24.09 10.34-6.64 15.16-19.26 16.38-24.06.41-1.65.81-3.17 1.3-4.64 2.25-6.64 4.34-12.69 8.35-17.7-9.97-7.9-12.71-15.89-15.36-23.67-2.48-7.26-4.82-14.1-13.48-22.78-17.62-17.61-46.85-17.03-64.47.56-3.79-8.17-12.65-13.33-22.26-13.33-11.65 0-21.4 8.41-23.45 19.46 3.05-1.44 6.45-2.26 9.99-2.26 13.44 0 24.4 11.67 24.4 26.04v34.99c0 6.08-2.33 18.41-14.31 27.38 11.98 8.97 14.31 21.29 14.31 27.39v35c0 14.35-10.95 26.04-24.4 26.04-3.54 0-6.94-.83-9.99-2.27 2.06 11.05 11.8 19.45 23.45 19.45 9.61 0 18.46-5.14 22.25-13.32 17.62 17.6 46.85 18.18 64.47.55 8.66-8.66 11-15.51 13.48-22.75 2.65-7.79 5.39-15.78 15.36-23.7-4.01-4.99-6.09-11.05-8.35-17.68-.49-1.46-.89-3-1.3-4.63m-23.42 35.56c0 13.58-12.48 24.6-27.88 24.6-10.68 0-19.95-5.27-24.63-13.04v-49.23c4.68-7.76 13.95-13.06 24.63-13.06 15.4 0 27.88 11.01 27.88 24.61 0 4.8-1.56 9.26-4.27 13.06 2.71 3.8 4.27 8.27 4.27 13.06m0-93.1c0 13.59-12.48 24.58-27.88 24.58-10.68 0-19.95-5.27-24.63-13.03V78.83c4.68-7.77 13.95-13.06 24.63-13.06 15.4 0 27.88 11.03 27.88 24.61 0 4.8-1.56 9.27-4.27 13.06 2.71 3.78 4.27 8.27 4.27 13.07"/><path fill="#fff" d="M192.91 254.92h5.78v1.15h-2.19v6.06h-1.4v-6.06h-2.19Zm13.19.02h2.01v7.19h-1.3v-5.6h-.04l-2.15 5.6h-.97l-2.15-5.6h-.03v5.6h-1.3v-7.19h2.02l1.96 5.08Zm22.95-57.82c-26.15 15.15-13.53 28.92-35.22 50.62-18.74 18.71-48.18 20.21-68.61 4.45-5.64 6.33-13.87 10.32-23 10.32-17 0-30.78-13.77-30.78-30.77 0-3.65.64-7.21 1.83-10.47 2.94 6.1 8.77 10.23 15.49 10.23 9.66 0 17.48-8.59 17.48-19.13v-35c0-3.67-1.23-19.99-22.2-27.38 20.96-7.41 22.2-23.73 22.2-27.38V87.6c0-10.57-7.81-19.14-17.48-19.14-6.72 0-12.55 4.17-15.49 10.25a30.6 30.6 0 0 1-1.83-10.49c0-16.97 13.78-30.77 30.78-30.77 9.14 0 17.36 3.99 23 10.35 20.43-15.77 49.87-14.29 68.61 4.44 21.69 21.69 9.06 35.47 35.22 50.62-7.35 4.36-9.64 10.57-13.09 20.66-2.12 6.22-2.84 18.21-14.8 26.48 11.96 8.27 12.69 20.25 14.8 26.45 3.45 10.1 5.75 16.32 13.09 20.67m-26.65 22.96c2.65-7.79 5.39-15.78 15.37-23.7-4.01-4.99-6.08-11.04-8.35-17.68-.49-1.45-.89-3-1.3-4.64-1.22-4.79-6.04-17.44-16.38-24.06 10.35-6.65 15.16-19.27 16.38-24.07.41-1.66.81-3.17 1.3-4.64 2.27-6.64 4.33-12.7 8.35-17.7-9.98-7.91-12.72-15.9-15.37-23.67-2.48-7.24-4.81-14.1-13.48-22.76-17.64-17.63-46.85-17.08-64.47.55-3.79-8.18-12.64-13.33-22.25-13.33-11.65 0-21.39 8.42-23.45 19.48a23.26 23.26 0 0 1 9.99-2.27c13.45 0 24.4 11.67 24.4 26.04v35c0 6.07-2.33 18.42-14.31 27.38 11.98 8.95 14.31 21.28 14.31 27.38v35.01c0 14.35-10.96 26.02-24.4 26.02-3.54 0-6.94-.82-9.99-2.26 2.05 11.05 11.8 19.45 23.45 19.45 9.61 0 18.47-5.14 22.26-13.32 17.62 17.59 46.84 18.19 64.47.55 8.67-8.65 11-15.52 13.48-22.75ZM156.82 65.79c15.4 0 27.88 11.03 27.88 24.61 0 4.81-1.56 9.27-4.27 13.06 2.71 3.78 4.27 8.26 4.27 13.07 0 13.59-12.48 24.58-27.88 24.58-10.68 0-19.95-5.27-24.63-13.03V78.84c4.68-7.78 13.95-13.06 24.63-13.06Zm20.97 50.72c0-5.17-2.65-9.82-6.86-13.07 4.21-3.26 6.86-7.91 6.86-13.06 0-9.75-9.41-17.68-20.97-17.68-7.44 0-13.99 3.28-17.72 8.21v45.08c3.73 4.92 10.28 8.21 17.72 8.21 11.56 0 20.97-7.94 20.97-17.68Zm6.91 66.99c0 4.81-1.56 9.26-4.27 13.06 2.71 3.79 4.27 8.27 4.27 13.06 0 13.58-12.48 24.6-27.88 24.6-10.68 0-19.95-5.27-24.63-13.03v-49.24c4.68-7.78 13.95-13.06 24.63-13.06 15.4 0 27.88 11 27.88 24.61m-6.91 26.125c-.002-5.158-2.651-9.836-6.86-13.055 4.21-3.25 6.86-7.91 6.86-13.06 0-9.75-9.41-17.68-20.97-17.68-7.44 0-13.99 3.27-17.72 8.19v45.06c3.73 4.95 10.28 8.22 17.72 8.22 11.558 0 20.967-7.927 20.97-17.675"/></svg>

<svg width="300" height="300" viewBox="0 0 300 300" fill="none" xmlns="http://www.w3.org/2000/svg">
<path d="M208.12 174.08C206.91 169.28 202.09 156.63 191.75 149.99C202.09 143.35 206.91 130.73 208.13 125.93C208.54 124.28 208.94 122.76 209.43 121.29C211.68 114.65 213.77 108.6 217.78 103.59C207.81 95.69 205.07 87.7 202.42 79.92C199.94 72.66 197.6 65.82 188.94 57.14C171.32 39.53 142.09 40.11 124.47 57.7C120.68 49.53 111.82 44.37 102.21 44.37C90.56 44.37 80.81 52.78 78.76 63.83C81.81 62.39 85.21 61.57 88.75 61.57C102.19 61.57 113.15 73.24 113.15 87.61V122.6C113.15 128.68 110.82 141.01 98.84 149.98C110.82 158.95 113.15 171.27 113.15 177.37V212.37C113.15 226.72 102.2 238.41 88.75 238.41C85.21 238.41 81.81 237.58 78.76 236.14C80.82 247.19 90.56 255.59 102.21 255.59C111.82 255.59 120.67 250.45 124.46 242.27C142.08 259.87 171.31 260.45 188.93 242.82C197.59 234.16 199.93 227.31 202.41 220.07C205.06 212.28 207.8 204.29 217.77 196.37C213.76 191.38 211.68 185.32 209.42 178.69C208.93 177.23 208.53 175.69 208.12 174.06M184.7 209.62C184.7 223.2 172.22 234.22 156.82 234.22C146.14 234.22 136.87 228.95 132.19 221.18V171.95C136.87 164.19 146.14 158.89 156.82 158.89C172.22 158.89 184.7 169.9 184.7 183.5C184.7 188.3 183.14 192.76 180.43 196.56C183.14 200.36 184.7 204.83 184.7 209.62ZM184.7 116.52C184.7 130.11 172.22 141.1 156.82 141.1C146.14 141.1 136.87 135.83 132.19 128.07V78.83C136.87 71.06 146.14 65.77 156.82 65.77C172.22 65.77 184.7 76.8 184.7 90.38C184.7 95.18 183.14 99.65 180.43 103.44C183.14 107.22 184.7 111.71 184.7 116.51" fill="#BD3039"/>
<path d="M229.05 197.12C202.9 212.27 215.52 226.04 193.83 247.74C175.09 266.45 145.65 267.95 125.22 252.19C119.58 258.52 111.35 262.51 102.22 262.51C85.22 262.51 71.44 248.74 71.44 231.74C71.44 228.09 72.08 224.53 73.27 221.27C76.21 227.37 82.04 231.5 88.76 231.5C98.42 231.5 106.24 222.91 106.24 212.37V177.37C106.24 173.7 105.01 157.38 84.04 149.99C105 142.58 106.24 126.26 106.24 122.61V87.6C106.24 77.03 98.43 68.46 88.76 68.46C82.04 68.46 76.21 72.63 73.27 78.71C72.0516 75.3471 71.4323 71.7967 71.44 68.22C71.44 51.25 85.22 37.45 102.22 37.45C111.36 37.45 119.58 41.44 125.22 47.8C145.65 32.03 175.09 33.51 193.83 52.24C215.52 73.93 202.89 87.71 229.05 102.86C221.7 107.22 219.41 113.43 215.96 123.52C213.84 129.74 213.12 141.73 201.16 150C213.12 158.27 213.85 170.25 215.96 176.45C219.41 186.55 221.71 192.77 229.05 197.12ZM202.4 220.08C205.05 212.29 207.79 204.3 217.77 196.38C213.76 191.39 211.69 185.34 209.42 178.7C208.93 177.25 208.53 175.7 208.12 174.06C206.9 169.27 202.08 156.62 191.74 150C202.09 143.35 206.9 130.73 208.12 125.93C208.53 124.27 208.93 122.76 209.42 121.29C211.69 114.65 213.75 108.59 217.77 103.59C207.79 95.68 205.05 87.69 202.4 79.92C199.92 72.68 197.59 65.82 188.92 57.16C171.28 39.53 142.07 40.08 124.45 57.71C120.66 49.53 111.81 44.38 102.2 44.38C90.55 44.38 80.81 52.8 78.75 63.86C81.8699 62.3703 85.2827 61.5948 88.74 61.59C102.19 61.59 113.14 73.26 113.14 87.63V122.63C113.14 128.7 110.81 141.05 98.83 150.01C110.81 158.96 113.14 171.29 113.14 177.39V212.4C113.14 226.75 102.18 238.42 88.74 238.42C85.2 238.42 81.8 237.6 78.75 236.16C80.8 247.21 90.55 255.61 102.2 255.61C111.81 255.61 120.67 250.47 124.46 242.29C142.08 259.88 171.3 260.48 188.93 242.84C197.6 234.19 199.93 227.32 202.41 220.09L202.4 220.08ZM156.82 65.79C172.22 65.79 184.7 76.82 184.7 90.4C184.7 95.21 183.14 99.67 180.43 103.46C183.14 107.24 184.7 111.72 184.7 116.53C184.7 130.12 172.22 141.11 156.82 141.11C146.14 141.11 136.87 135.84 132.19 128.08V78.84C136.87 71.06 146.14 65.78 156.82 65.78V65.79ZM177.79 116.51C177.79 111.34 175.14 106.69 170.93 103.44C175.14 100.18 177.79 95.53 177.79 90.38C177.79 80.63 168.38 72.7 156.82 72.7C149.38 72.7 142.83 75.98 139.1 80.91V125.99C142.83 130.91 149.38 134.2 156.82 134.2C168.38 134.2 177.79 126.26 177.79 116.52V116.51ZM184.7 183.5C184.7 188.31 183.14 192.76 180.43 196.56C183.14 200.35 184.7 204.83 184.7 209.62C184.7 223.2 172.22 234.22 156.82 234.22C146.14 234.22 136.87 228.95 132.19 221.19V171.95C136.87 164.17 146.14 158.89 156.82 158.89C172.22 158.89 184.7 169.89 184.7 183.5ZM177.79 209.625C177.788 204.467 175.139 199.789 170.93 196.57C175.14 193.32 177.79 188.66 177.79 183.51C177.79 173.76 168.38 165.83 156.82 165.83C149.38 165.83 142.83 169.1 139.1 174.02V219.08C142.83 224.03 149.38 227.3 156.82 227.3C168.378 227.3 177.787 219.373 177.79 209.625Z" fill="white"/>
</svg>
